X:2200
T:Brodericks
C:Vincent Broderick
R:Jig
S:Tony Smith, Cavan (fiddle)
Z:Bernie Stocks
N:As played
M:6/8
K:G
G |: {A}GED DED | GBd ege | dBA {B}AGA | BGE (3EGED | 
{A}GED DED | GBd ege | dBA AGA | BGG G,2G2A :|
|: B2d edd | gdd edB | {d}BAG GAB | AGE (3EGEA 
|1 Bdd edd | gdd edB | {d}BAG GAB | AGE G2A :|
|2 {A}GED DED | GBd ege | dBA AGA | BGG G,2G2A ||
